X:1
T: The Braes of Auchentrye
C:
R:Reel
Q: 232
K:C
M:4/4
L:1/8
|:((3CCC) C2 EG G2|cd ed cA AG|((3AAA) AG A2 a2|ge cd ed d2|
((3CCC) C2 EG G2|cd ed cA AG|((3ABc) Gc Fd Ec|ed cB c2 c2:|
|:e3a ge dc|fe dc ec cG|((3AAA) AG A2 a2|ge cd ed d2|
eg ga ge dc|fe dc ec cG|((3ABc) Gc Fd Ec|ed cB c2 C2:|
